src/components/00-materials/images-raw/Cabriolet.svg

<svg width="96" height="96" viewBox="0 0 96 96" fill="none" xmlns="http://www.w3.org/2000/svg">
<path d="M43.17 45.7C38.32 44.36 35.49 36.7 33.81 37.27C32.81 37.62 34.34 41.27 34.34 41.27M61.41 40C61.41 40 53.08 26.36 51.41 27.57C49.93 28.67 55.64 41.79 56.78 44.37" stroke="#00008F" stroke-width="2" stroke-linecap="round" stroke-linejoin="round"/>
<path d="M8.08 60.46V60.41C8.08 60.41 5 57.66 5 51.32C5 48.78 7.32 44.1 11.82 43.42L31.38 39.25C31.38 39.25 40.45 46.74 49.19 46.74C51.643 46.8092 54.0698 46.2207 56.2186 45.0355C58.3674 43.8503 60.1599 42.1117 61.41 40L83 44.67C89.82 45.67 91.69 50.74 90.69 54.67C89.69 58.6 89 60.52 85.25 60.56M41.79 60.43V45.22M46.69 50.59H45" stroke="#00008F" stroke-width="2" stroke-linecap="round" stroke-linejoin="round"/>
<path d="M23.63 51.3301C22.4893 51.3155 21.3569 51.526 20.2975 51.9495C19.2382 52.3729 18.2728 53.001 17.4564 53.7979C16.64 54.5948 15.9887 55.5448 15.5398 56.5935C15.0908 57.6423 14.8531 58.7693 14.84 59.91C14.8378 60.474 14.8914 61.0367 15 61.59C15.2245 62.663 15.6559 63.682 16.27 64.59C17.0842 65.7883 18.1791 66.7692 19.4594 67.4471C20.7396 68.1251 22.1663 68.4795 23.615 68.4795C25.0637 68.4795 26.4904 68.1251 27.7706 67.4471C29.0509 66.7692 30.1458 65.7883 30.96 64.59C31.5781 63.6841 32.0098 62.6644 32.23 61.59C32.342 61.037 32.3989 60.4743 32.4 59.91C32.3736 57.6097 31.4351 55.4139 29.7907 53.805C28.1462 52.1962 25.9304 51.306 23.63 51.3301V51.3301Z" stroke="#00008F" stroke-width="2" stroke-linecap="round" stroke-linejoin="round"/>
<path d="M23.63 63.81C22.8301 63.8116 22.048 63.5733 21.3849 63.1259C20.7217 62.6784 20.208 62.0424 19.91 61.3C19.7333 60.8579 19.6417 60.3863 19.64 59.91C19.64 58.8492 20.0614 57.8318 20.8116 57.0816C21.5617 56.3315 22.5791 55.91 23.64 55.91C24.7009 55.91 25.7183 56.3315 26.4684 57.0816C27.2186 57.8318 27.64 58.8492 27.64 59.91C27.6418 60.3856 27.5536 60.8573 27.38 61.3C27.0802 62.0472 26.5618 62.6865 25.8927 63.1343C25.2237 63.5821 24.4351 63.8177 23.63 63.81V63.81ZM69.33 51.33C68.1898 51.3155 67.0579 51.5261 65.9991 51.9497C64.9403 52.3732 63.9755 53.0015 63.16 53.7985C62.3444 54.5955 61.6941 55.5456 61.2462 56.5943C60.7983 57.643 60.5618 58.7698 60.55 59.91C60.5528 60.4737 60.6063 61.036 60.71 61.59C60.9345 62.663 61.3659 63.682 61.98 64.59C62.7953 65.7883 63.8912 66.7691 65.1723 67.4469C66.4533 68.1247 67.8807 68.4791 69.33 68.4791C70.7793 68.4791 72.2067 68.1247 73.4878 67.4469C74.7688 66.7691 75.8647 65.7883 76.68 64.59C77.2911 63.6815 77.7191 62.6625 77.94 61.59C78.052 61.037 78.1089 60.4743 78.11 59.91C78.097 58.7702 77.8595 57.644 77.4112 56.5959C76.9629 55.5478 76.3125 54.5982 75.4972 53.8015C74.6818 53.0047 73.7176 52.3764 72.6594 51.9523C71.6012 51.5283 70.4699 51.3168 69.33 51.33V51.33Z" stroke="#00008F" stroke-width="2" stroke-linecap="round" stroke-linejoin="round"/>
<path d="M5.25 50.88C11.34 51.83 12.74 45.82 8.4 45.16M69.31 63.81C68.7898 63.822 68.2725 63.7301 67.7884 63.5396C67.3042 63.3491 66.8629 63.0638 66.4904 62.7006C66.1179 62.3374 65.8216 61.9035 65.6189 61.4243C65.4162 60.9451 65.3112 60.4303 65.31 59.91C65.31 58.8492 65.7314 57.8318 66.4816 57.0816C67.2317 56.3315 68.2491 55.91 69.31 55.91C70.3709 55.91 71.3883 56.3315 72.1384 57.0816C72.8886 57.8318 73.31 58.8492 73.31 59.91C73.2959 60.3889 73.1907 60.8606 73 61.3C72.7039 62.0377 72.1948 62.6704 71.5376 63.1175C70.8804 63.5645 70.1048 63.8056 69.31 63.81V63.81ZM32.55 60.56H60.34H32.55ZM77.1 64H89C89.4615 64 89.9041 63.8167 90.2304 63.4904C90.5567 63.1641 90.74 62.7215 90.74 62.26C90.74 61.7986 90.5567 61.356 90.2304 61.0297C89.9041 60.7034 89.4615 60.52 89 60.52H78.26L77.1 64ZM31.44 64.04H61.65H31.44ZM14.83 60.56H8.59C8.12852 60.56 7.68595 60.7434 7.35963 61.0697C7.03332 61.396 6.85 61.8386 6.85 62.3C6.85 62.7615 7.03332 63.2041 7.35963 63.5304C7.68595 63.8567 8.12852 64.04 8.59 64.04H15.59L14.83 60.56Z" stroke="#00008F" stroke-width="2" stroke-linecap="round" stroke-linejoin="round"/>
</svg>

<svg width="96" height="96" viewBox="0 0 96 96" fill="none" xmlns="http://www.w3.org/2000/svg"><path d="M43.17 45.7c-4.85-1.34-7.68-9-9.36-8.43-1 .35.53 4 .53 4M61.41 40s-8.33-13.64-10-12.43c-1.48 1.1 4.23 14.22 5.37 16.8" stroke="#00008F" stroke-width="2" stroke-linecap="round" stroke-linejoin="round"/><path d="M8.08 60.46v-.05S5 57.66 5 51.32c0-2.54 2.32-7.22 6.82-7.9l19.56-4.17s9.07 7.49 17.81 7.49A13.75 13.75 0 0061.41 40L83 44.67c6.82 1 8.69 6.07 7.69 10-1 3.93-1.69 5.85-5.44 5.89m-43.46-.13V45.22m4.9 5.37H45" stroke="#00008F" stroke-width="2" stroke-linecap="round" stroke-linejoin="round"/><path d="M23.63 51.33a8.679 8.679 0 00-8.79 8.58 8.55 8.55 0 00.16 1.68 8.44 8.44 0 001.27 3 8.88 8.88 0 0014.69 0 8.268 8.268 0 001.44-4.68 8.68 8.68 0 00-8.77-8.58v0z" stroke="#00008F" stroke-width="2" stroke-linecap="round" stroke-linejoin="round"/><path d="M23.63 63.81a4 4 0 01-3.72-2.51 3.782 3.782 0 01-.27-1.39 4 4 0 018 0c.002.476-.086.947-.26 1.39a4 4 0 01-3.75 2.51v0zm45.7-12.48a8.67 8.67 0 00-8.78 8.58c.003.564.056 1.126.16 1.68a8.44 8.44 0 001.27 3 8.89 8.89 0 0014.7 0 8.417 8.417 0 001.26-3 8.547 8.547 0 00.17-1.68 8.68 8.68 0 00-8.78-8.58v0z" stroke="#00008F" stroke-width="2" stroke-linecap="round" stroke-linejoin="round"/><path d="M5.25 50.88c6.09.95 7.49-5.06 3.15-5.72m60.91 18.65a3.909 3.909 0 01-4-3.9 4 4 0 018 0A3.77 3.77 0 0173 61.3a4 4 0 01-3.69 2.51v0zm-36.76-3.25h27.79-27.79zM77.1 64H89a1.74 1.74 0 100-3.48H78.26L77.1 64zm-45.66.04h30.21-30.21zm-16.61-3.48H8.59a1.74 1.74 0 000 3.48h7l-.76-3.48z" stroke="#00008F" stroke-width="2" stroke-linecap="round" stroke-linejoin="round"/></svg>
